ExpEYES17/UserManual/fr/rst/exp/schematics/and-gate.svg

<?xml version="1.0" encoding="UTF-8" standalone="no"?>
<svg
   xmlns:dc="http://purl.org/dc/elements/1.1/"
   xmlns:cc="http://creativecommons.org/ns#"
   xmlns:rdf="http://www.w3.org/1999/02/22-rdf-syntax-ns#"
   xmlns:svg="http://www.w3.org/2000/svg"
   xmlns="http://www.w3.org/2000/svg"
   xmlns:sodipodi="http://sodipodi.sourceforge.net/DTD/sodipodi-0.dtd"
   xmlns:inkscape="http://www.inkscape.org/namespaces/inkscape"
   version="1.1"
   id="and-gate"
   width="100%"
   height="100%"
   viewBox="-6 -6 646 374"
   sodipodi:docname="and-gate.svg"
   inkscape:version="0.92.2 (5c3e80d, 2017-08-06)"
   inkscape:export-filename="/home/georgesk/developpement/expeyes/expeyes/ExpEYES17/UserManual/fr/rst/exp/schematics/and-gate.png"
   inkscape:export-xdpi="44.859814"
   inkscape:export-ydpi="44.859814">
  <metadata
     id="metadata123">
    <rdf:RDF>
      <cc:Work
         rdf:about="">
        <dc:format>image/svg+xml</dc:format>
        <dc:type
           rdf:resource="http://purl.org/dc/dcmitype/StillImage" />
        <dc:title></dc:title>
      </cc:Work>
    </rdf:RDF>
  </metadata>
  <defs
     id="defs121" />
  <sodipodi:namedview
     pagecolor="#ffffff"
     bordercolor="#666666"
     borderopacity="1"
     objecttolerance="10"
     gridtolerance="10"
     guidetolerance="10"
     inkscape:pageopacity="0"
     inkscape:pageshadow="2"
     inkscape:window-width="1424"
     inkscape:window-height="871"
     id="namedview119"
     showgrid="false"
     inkscape:zoom="1.2414861"
     inkscape:cx="323"
     inkscape:cy="187"
     inkscape:window-x="0"
     inkscape:window-y="0"
     inkscape:window-maximized="0"
     inkscape:current-layer="and-gate" />
  <desc
     id="desc2">
XCircuit Version 3.7
File &quot;OLD/and-gate.ps&quot; Page 1
</desc>
  <path
     style="fill:none;stroke:#000000;stroke-width:2;stroke-linecap:round;stroke-linejoin:bevel"
     inkscape:connector-curvature="0"
     id="path4"
     d="m 400,288 h -64 v -96 h 64" />
  <path
     style="fill:none;stroke:#000000;stroke-width:2;stroke-linecap:round;stroke-linejoin:bevel"
     inkscape:connector-curvature="0"
     id="path6"
     d="m 400,288 a 48,48 0 0 0 0,-96" />
  <text
     font-size="40"
     id="text10"
     style="font-size:40px;font-family:Helvetica;fill:#000000;stroke:none"
     x="154.3"
     y="63.279999">
    <tspan
       x="154.3"
       y="63.279999"
       id="tspan8">OD1</tspan>
  </text>
  <text
     font-size="40"
     id="text16"
     style="font-size:40px;font-family:Helvetica;fill:#000000;stroke:none"
     x="283.19376"
     y="61.84">
    <tspan
       x="283.19376"
       y="61.84"
       id="tspan14">SQ1</tspan>
  </text>
  <path
     style="fill:none;stroke:#000000;stroke-width:2;stroke-linecap:round;stroke-linejoin:bevel"
     inkscape:connector-curvature="0"
     id="path20"
     d="m 272,16 v 64 h 96 V 16 Z" />
  <path
     style="fill:none;stroke:#000000;stroke-width:2;stroke-linecap:round;stroke-linejoin:bevel"
     inkscape:connector-curvature="0"
     id="path22"
     d="m 144,16 v 64 h 96 V 16 Z" />
  <path
     style="fill:none;stroke:#000000;stroke-width:2;stroke-linecap:round;stroke-linejoin:bevel"
     inkscape:connector-curvature="0"
     id="path24"
     d="m 272,272 h 64" />
  <path
     style="fill:none;stroke:#000000;stroke-width:2;stroke-linecap:round;stroke-linejoin:bevel"
     inkscape:connector-curvature="0"
     id="path26"
     d="M 336,208 H 272" />
  <text
     font-size="40"
     id="text30"
     style="font-size:40px;font-family:Helvetica;fill:#000000;stroke:none"
     x="560"
     y="64">
    <tspan
       x="560"
       y="64"
       id="tspan28">A1</tspan>
  </text>
  <path
     style="fill:none;stroke:#000000;stroke-width:2;stroke-linecap:round;stroke-linejoin:bevel"
     inkscape:connector-curvature="0"
     id="path34"
     d="m 544,16 v 64 h 80 V 16 Z" />
  <path
     style="fill:none;stroke:#000000;stroke-width:2;stroke-linecap:round;stroke-linejoin:bevel"
     inkscape:connector-curvature="0"
     id="path36"
     d="m 448,240 h 48" />
  <text
     font-size="40"
     id="text40"
     style="font-size:40px;font-family:Helvetica;fill:#000000;stroke:none"
     x="432"
     y="63.400002">
    <tspan
       x="432"
       y="63.400002"
       id="tspan38">5V</tspan>
  </text>
  <text
     font-size="40"
     id="text46"
     style="font-size:40px;font-family:Helvetica;fill:#000000;stroke:none"
     x="27.780001"
     y="63.279999">
    <tspan
       x="27.780001"
       y="63.279999"
       id="tspan44">GND</tspan>
  </text>
  <path
     style="fill:none;stroke:#000000;stroke-width:2;stroke-linecap:round;stroke-linejoin:bevel"
     inkscape:connector-curvature="0"
     id="path50"
     d="M 16,16 V 80 H 128 V 16 Z" />
  <path
     style="fill:none;stroke:#000000;stroke-width:2;stroke-linecap:round;stroke-linejoin:bevel"
     inkscape:connector-curvature="0"
     id="path52"
     d="m 416,16 v 64 h 80 V 16 Z" />
  <text
     font-size="40"
     id="text56"
     style="font-size:40px;font-family:Helvetica;fill:#000000;stroke:none"
     x="344"
     y="256">
    <tspan
       x="344"
       y="256"
       id="tspan54">7408</tspan>
  </text>
  <text
     font-size="40"
     id="text62"
     style="font-size:40px;font-family:Helvetica;fill:#000000;stroke:none"
     x="304"
     y="200">
    <tspan
       x="304"
       y="200"
       id="tspan60">1</tspan>
  </text>
  <text
     font-size="40"
     id="text68"
     style="font-size:40px;font-family:Helvetica;fill:#000000;stroke:none"
     x="304"
     y="264">
    <tspan
       x="304"
       y="264"
       id="tspan66">2</tspan>
  </text>
  <text
     font-size="40"
     id="text74"
     style="font-size:40px;font-family:Helvetica;fill:#000000;stroke:none"
     x="464"
     y="232">
    <tspan
       x="464"
       y="232"
       id="tspan72">3</tspan>
  </text>
  <text
     font-size="40"
     id="text80"
     style="font-size:40px;font-family:Helvetica;fill:#000000;stroke:none"
     x="400"
     y="180">
    <tspan
       x="400"
       y="180"
       id="tspan78">14</tspan>
  </text>
  <text
     font-size="40"
     id="text86"
     style="font-size:40px;font-family:Helvetica;fill:#000000;stroke:none"
     x="408"
     y="332">
    <tspan
       x="408"
       y="332"
       id="tspan84">7</tspan>
  </text>
  <path
     style="fill:none;stroke:#000000;stroke-width:2;stroke-linecap:round;stroke-linejoin:bevel"
     inkscape:connector-curvature="0"
     id="path90"
     d="M 384,192 V 160" />
  <path
     style="fill:none;stroke:#000000;stroke-width:2;stroke-linecap:round;stroke-linejoin:bevel"
     inkscape:connector-curvature="0"
     id="path92"
     d="m 384,288 v 32" />
  <circle
     style="fill:none;stroke:#000000;stroke-width:2;stroke-linecap:round;stroke-linejoin:bevel"
     r="16"
     id="ellipse94"
     cy="144"
     cx="384" />
  <circle
     style="fill:none;stroke:#000000;stroke-width:2;stroke-linecap:round;stroke-linejoin:bevel"
     r="16"
     id="ellipse96"
     cy="240"
     cx="512" />
  <circle
     style="fill:none;stroke:#000000;stroke-width:2;stroke-linecap:round;stroke-linejoin:bevel"
     r="16"
     id="ellipse98"
     cy="208"
     cx="256" />
  <circle
     style="fill:none;stroke:#000000;stroke-width:2;stroke-linecap:round;stroke-linejoin:bevel"
     r="16"
     id="ellipse100"
     cy="272"
     cx="256" />
  <circle
     style="fill:none;stroke:#000000;stroke-width:2;stroke-linecap:round;stroke-linejoin:bevel"
     r="16"
     id="ellipse102"
     cy="336"
     cx="384" />
  <path
     style="fill:none;stroke:#000000;stroke-width:2;stroke-linecap:round;stroke-linejoin:bevel"
     inkscape:connector-curvature="0"
     id="path104"
     d="m 384,128 c 16,0 96,-16 64,-48" />
  <path
     style="fill:none;stroke:#000000;stroke-width:2;stroke-linecap:round;stroke-linejoin:bevel"
     inkscape:connector-curvature="0"
     id="path106"
     d="m 512,224 c 16,0 96,-96 64,-144" />
  <path
     style="fill:none;stroke:#000000;stroke-width:2;stroke-linecap:round;stroke-linejoin:bevel"
     inkscape:connector-curvature="0"
     id="path108"
     d="m 256,192 c 16,0 48,-112 64,-112" />
  <path
     style="fill:none;stroke:#000000;stroke-width:2;stroke-linecap:round;stroke-linejoin:bevel"
     inkscape:connector-curvature="0"
     id="path110"
     d="m 240,272 c 16,0 -96,-48 -48,-192" />
  <path
     style="fill:none;stroke:#000000;stroke-width:2;stroke-linecap:round;stroke-linejoin:bevel"
     inkscape:connector-curvature="0"
     id="path112"
     d="m 64,80 c 16,0 16,288 304,256" />
  <path
     style="fill:none;stroke:#000000;stroke-width:2;stroke-linecap:round;stroke-linejoin:bevel"
     inkscape:connector-curvature="0"
     id="path114"
     d="M 0,0 V 368 H 640 V 0 Z" />
</svg>

<svg xmlns="http://www.w3.org/2000/svg"
   xmlns:xlink="http://www.w3.org/1999/xlink"
   version="1.1"
   id="and-gate" width="100%" height="100%"  viewBox="-6 -6 646 374">
<desc>
XCircuit Version 3.7
File "OLD/and-gate.ps" Page 1
</desc>
<g stroke="black">
<path d="M400,288 L336,288 336,192 400,192 " fill="none" stroke-width="2" stroke-linejoin="bevel" stroke-linecap="round" stroke="#000000" />
<path d="M400,288 A48,48 0 0,0 400,192 " fill="none" stroke-width="2" stroke-linejoin="bevel" stroke-linecap="round" stroke="#000000" />
<g transform="matrix(   1    0   -0    1 160  64)" fill="#000000" >
<text stroke="none" font-family="Helvetica" font-size="40" ><tspan x="0" y="0">OD1</tspan>
</text></g>
<g transform="matrix(   1    0   -0    1 288  64)" fill="#000000" >
<text stroke="none" font-family="Helvetica" font-size="40" ><tspan x="0" y="0">SQ1</tspan>
</text></g>
<path d="M272,16 L272,80 368,80 368,16 z" fill="none" stroke-width="2" stroke-linejoin="bevel" stroke-linecap="round" stroke="#000000" />
<path d="M144,16 L144,80 240,80 240,16 z" fill="none" stroke-width="2" stroke-linejoin="bevel" stroke-linecap="round" stroke="#000000" />
<path d="M272,272 L336,272 " fill="none" stroke-width="2" stroke-linejoin="bevel" stroke-linecap="round" stroke="#000000" />
<path d="M336,208 L272,208 " fill="none" stroke-width="2" stroke-linejoin="bevel" stroke-linecap="round" stroke="#000000" />
<g transform="matrix(   1    0   -0    1 560  64)" fill="#000000" >
<text stroke="none" font-family="Helvetica" font-size="40" ><tspan x="0" y="0">A1</tspan>
</text></g>
<path d="M544,16 L544,80 624,80 624,16 z" fill="none" stroke-width="2" stroke-linejoin="bevel" stroke-linecap="round" stroke="#000000" />
<path d="M448,240 L496,240 " fill="none" stroke-width="2" stroke-linejoin="bevel" stroke-linecap="round" stroke="#000000" />
<g transform="matrix(   1    0   -0    1 432  64)" fill="#000000" >
<text stroke="none" font-family="Helvetica" font-size="40" ><tspan x="0" y="0">5V</tspan>
</text></g>
<g transform="matrix(   1    0   -0    1  32  64)" fill="#000000" >
<text stroke="none" font-family="Helvetica" font-size="40" ><tspan x="0" y="0">GND</tspan>
</text></g>
<path d="M16,16 L16,80 128,80 128,16 z" fill="none" stroke-width="2" stroke-linejoin="bevel" stroke-linecap="round" stroke="#000000" />
<path d="M416,16 L416,80 496,80 496,16 z" fill="none" stroke-width="2" stroke-linejoin="bevel" stroke-linecap="round" stroke="#000000" />
<g transform="matrix(   1    0   -0    1 336 256)" fill="#000000" >
<text stroke="none" font-family="Helvetica" font-size="40" ><tspan x="0" y="0">7408</tspan>
</text></g>
<g transform="matrix(   1    0   -0    1 304 208)" fill="#000000" >
<text stroke="none" font-family="Helvetica" font-size="40" ><tspan x="0" y="0">1</tspan>
</text></g>
<g transform="matrix(   1    0   -0    1 304 272)" fill="#000000" >
<text stroke="none" font-family="Helvetica" font-size="40" ><tspan x="0" y="0">2</tspan>
</text></g>
<g transform="matrix(   1    0   -0    1 464 240)" fill="#000000" >
<text stroke="none" font-family="Helvetica" font-size="40" ><tspan x="0" y="0">3</tspan>
</text></g>
<g transform="matrix(   1    0   -0    1 400 176)" fill="#000000" >
<text stroke="none" font-family="Helvetica" font-size="40" ><tspan x="0" y="0">14</tspan>
</text></g>
<g transform="matrix(   1    0   -0    1 416 336)" fill="#000000" >
<text stroke="none" font-family="Helvetica" font-size="40" ><tspan x="0" y="0">7</tspan>
</text></g>
<path d="M384,192 L384,160 " fill="none" stroke-width="2" stroke-linejoin="bevel" stroke-linecap="round" stroke="#000000" />
<path d="M384,288 L384,320 " fill="none" stroke-width="2" stroke-linejoin="bevel" stroke-linecap="round" stroke="#000000" />
<ellipse cx="384" cy="144" rx="16" ry="16" fill="none" stroke-width="2" stroke-linejoin="bevel" stroke-linecap="round" stroke="#000000" />
<ellipse cx="512" cy="240" rx="16" ry="16" fill="none" stroke-width="2" stroke-linejoin="bevel" stroke-linecap="round" stroke="#000000" />
<ellipse cx="256" cy="208" rx="16" ry="16" fill="none" stroke-width="2" stroke-linejoin="bevel" stroke-linecap="round" stroke="#000000" />
<ellipse cx="256" cy="272" rx="16" ry="16" fill="none" stroke-width="2" stroke-linejoin="bevel" stroke-linecap="round" stroke="#000000" />
<ellipse cx="384" cy="336" rx="16" ry="16" fill="none" stroke-width="2" stroke-linejoin="bevel" stroke-linecap="round" stroke="#000000" />
<path d="M384,128 C400,128 480,112 448,80 " fill="none" stroke-width="2" stroke-linejoin="bevel" stroke-linecap="round" stroke="#000000" />
<path d="M512,224 C528,224 608,128 576,80 " fill="none" stroke-width="2" stroke-linejoin="bevel" stroke-linecap="round" stroke="#000000" />
<path d="M256,192 C272,192 304,80 320,80 " fill="none" stroke-width="2" stroke-linejoin="bevel" stroke-linecap="round" stroke="#000000" />
<path d="M240,272 C256,272 144,224 192,80 " fill="none" stroke-width="2" stroke-linejoin="bevel" stroke-linecap="round" stroke="#000000" />
<path d="M64,80 C80,80 80,368 368,336 " fill="none" stroke-width="2" stroke-linejoin="bevel" stroke-linecap="round" stroke="#000000" />
<path d="M0,0 L0,368 640,368 640,0 z" fill="none" stroke-width="2" stroke-linejoin="bevel" stroke-linecap="round" stroke="#000000" />
</g>
</svg>
